X: 18065
T: Humours Of Ballinaraheen, The
R: jig
M: 6/8
K: Edorian
dBB B2A|GFG E3|dBB B2A|Bee e/f/ge|
dBB B2A|GFG E3|gfe dBA|Bee e3:|
|:gbg faf|ege def|gbg faf|gBB B2A|
gg faf|ege def|gfe dBA|Bee e3:|

